X:1
T:Samsun, 87.87 D
T:Samsun, 87.87 D
T:Ira David Sankey, 1894
T:Public Domain Courtesy of the Cyber Hymnal™
C:Ira David Sankey, 1894
Z:Public Domain
Z:Courtesy of the Cyber Hymnal™
%%score ( 1 2 ) ( 3 4 )
L:1/8
Q:1/4=96
M:3/4
K:G
V:1 treble 
V:2 treble 
V:3 bass 
V:4 bass 
V:1
 D>D | [DG]3 [DG] [FA]>[FA] | [GB]2 [Gd]2 [Ge]>[Ge] | [Gd]3 [GB] [GB]>G | [FA]4 D>D | %5
 [DG]3 [DG] [FA]>[FA] | [GB]2 [Gd]2 [Gc][Ge] | [Gd]3 [GB] [FA]>[FB] | G4 G>G | %9
 [Ge]3 [Ge] [Gc]>[Ge] | [Gd]2 [Gd]2 [DB]>[Dc] | [Gd]3 [GB] [Ac]>[GB] | [FA]4 D>D | %13
 [DG]3 [DG] [FA]>[FA] | [GB]2 [Gd]2 [Gc][Ge] | [Gd]3"^riten." [GB] [GB]>[FA] | G4 |] %17
V:2
 D>D | x6 | x6 | x11/2 G/ | x4 D>D | x6 | x6 | x6 | G4 G>G | x6 | x6 | x6 | x4 D>D | x6 | x6 | x6 | %16
 G4 |] %17
V:3
 [G,B,]>[G,B,] | [G,B,]3 [G,B,] [D,D]>[D,D] | [G,D]2 [G,B,]2 [C,C]>[C,C] | %3
 [G,B,]3 [G,D] [G,D]>[B,,D] | [D,D]4 [G,B,]>[G,B,] | [G,B,]3 [G,B,] [D,D]>[D,D] | %6
 [G,D]2 [G,B,]2 [E,C][C,C] | [D,B,]3 [D,D] [D,D]>[D,D] | [G,B,]4 [G,B,]>[G,B,] | %9
 [C,C]3 [C,C] [E,C]>[C,C] | [G,B,]2 [G,B,]2 G,>[G,A,] | [G,B,]3 [G,D] [F,D]>[G,D] | %12
 [D,D]4 [G,B,]>[G,B,] | [G,B,]3 [G,B,] [D,D]>[D,D] | [G,D]2 [G,B,]2 [C,E][C,C] | %15
 [D,B,]3 [D,D] [D,D]>[D,C] | [G,B,]4 |] %17
V:4
 x2 | x6 | x6 | x6 | x6 | x6 | x6 | x6 | x6 | x6 | x4 G,3/2 x/ | x6 | x6 | x6 | x6 | x6 | x4 |] %17

